!!!OTL: Witchcraft
!!!MPN: Byrd, Donald
!!!OAT: Byrd, Donald
!!!OAL: Byrd in Hand
!!!ODL: 1959-05-31
!!!COM: Coleman, Cy
!!!ODT: 1957
**kern
*ITromp
*ITrd1c2
*clefG2
*E-:
*k[b-e-a-]
*M4/4
=1-
4r
8r
8c
4c
4d
=2
4d
8e-
[8e-
2e-_
=3
4e-]
8r
8c
4c
4d
=4
4d
8e-
[8e-
2e-]
=5
4r
8r
8c
4c
4d
=6
4d
4e-
4e-
4d
=7
8d
[8c
4c_
2c]
=8
1r
=9
4r
8r
8e-
4e-
4f
=10
4f
8g
[8g
2g]
=11
4r
8r
8e-
[4e-
8e-]
8f
=12
4f
8g-
[8g-
2g-_
=13
4g-]
4e-
4e-
4f
=14
4f
8g-
8g-
8r
8f
8e-
[8b-
=15
1b-_
=16
2b-]
4r
qA-
4B-
=17
8b-
[8f
4f_
2f_
=18
2f]
4r
4B-
=19
2b-
[2f
=20
2f]
4r
4B-
=21
2b-
4f
8e-
[8b-
=22
8b-]
8f
8e-
[8d
8d]
8e-
8g
8b-
=23
[1cc
=24
1cc_
=25
4cc]
4b-
4b-
4a
=26
4a
8g
[8g
8g]
8a
8g
[8b-
=27
2b-]
4r
8r
8b-
=28
8a
8a
4g
8g
8f#
8g
[8a-
=29
2a-]
4a-
4g
=30
4g
8f
[8f
8f]
8e
8f
[8a-
=31
1a-_
=32
1a-]
=33
4r
8r
8c
4c
4d
=34
4d
8e-
[8e-
4e-]
4r
=35
4r
8r
8c
4.c
8d
=36
4d
8e-
[8e-
2e-]
=37
4r
8r
8c
8.c
16d
16e-
16f
16g
16b-
=38
2cc
2dd
=39
4ee-
8r
8b-
4dd
8ff
8ff-
=40
8ee-
8dd
16cc
16dd
16cc
16cc-
8b-
8g-
8d
8B-
=41||
4f
[4b-
2b-_
=42
2b-]
8g
8b-
8g
8b-
=43
4g-
[4b-
4b-]
4r
=44
2r
qb
4cc
8dd
8ff
=45
6ee-
12dd
12cc
6ee-
16b-
16cc
16b-
16g
4cc
=46
16a-
16g
16f
16r
8.ee-
16cc
4b-
8a-
16f
16f#
=47
8g
8ee-
4r
8r
16cc
16a
16b-
16cc
16dd-
16ee-
=48
16ff
16aa-
16gg
16ff
16ee-
16dd-
16cc
16b-
8cc
16b-
16a-
16g
16f
16e-
16d
=49
16e-
16f
16g
16a-
16b-
16g
16a-
16b-
16b
16cc
16cc#
16dd
16ee-
16ff
16gg
16aa-
=50
8.bb-
16gg
16aa-
16ee-
8r
8gg
16gg-
16ff
16ee-
16b-
16a-
16g
=51
8.ee-
16cc-
8b-
8a-
4dd-
8b-
8cc-
=52
8r
8e-
12f
12g-
12b-
8a-
8b-
8cc-
8cc
=53
8dd-
8b-
8g-
8d-
4e-
8d-
8c
=54
4r
12r
12b-
12a
4a-
4r
=55
8r
16b-
16a
8a-
8b-
8cc
8ee-
8gg
8ff
=56
8gg-
8dd
8dd-
8cc
8cc-
8a
8b-
8a-
=57
4g
4b-
2ee-
=58
8g
8g
8dd
[8ee-
4.ee-]
8b-
=59
8g
8b-
4dd
2ee-
=60
8g
8b-
8dd
[8ee-
4.ee-]
8b-
=61
8g
8b-
4dd
8ff
8ee
8ee-
8dd
=62
16cc
16dd
16cc
16b
8b-
8a-
8g
8b-
8cc
8dd
=63
4ff
4ee
8ee-
8dd
8cc
8b-
=64
8a
8g
8e
8f
8f#
8a
8e-
[8d
=65
4d]
8r
16g
16a
8b-
8a
8b-
[8e-
=66
4e-]
8g
8a
4.b-
8e-
=67
4e
8g
8a
8b-
8a
8b-
8cc
=68
4cc#
8cc
[8b-
4b-]
4r
=69
8r
8c
12f
12g
12a-
12r
12b-
12-
8g
8f
=70
4b-
8a-
[8f
4f]
8r
8g
=71
8b-
8g
8a-
8b-
8b
8cc#
8b-
8a
=72
8a-
8e-
8c
8A-
4d-
8d
8e-
=73
8r
4.b-
2g
=74
2r
8dd
8b
8cc
8dd
=75
4ff
4ff-
8ee-
8cc
8a
8g
=76
8g-
8a
8e-
8d
4f
8e-
[8c
=77
4c]
8f
8g
8a-
8b-
8cc-
8cc
=78
4dd
8ff
8cc-
8b-
8a-
8f
8g-
=79
12g
12a-
12a
8b-
8cc
8dd-
8cc
8b-
8a
=80
24a-
24b-
24a-
8g
8g-
8e-
8d
8f
8a-
8cc-
=81||
8b-
8ff
8dd
8b-
8ee-
8cc
8a-
8f
=82
4cc
8a-
8g
8f
8g
8a-
8b-
=83
4a
4r
2r
=84
16d
16c-
16c
16d
16e-
16f
16g-
16a-
16a
16cc-
16cc
16dd
8ee-
8dd
=85
8ff
8ee-
8dd
8cc
qdd
8ee-
8cc-
8b-
8a-
=86
4ee-
12cc-
12b-
12a-
8g
8f
8e
8d
=87
4e-
8g
8b-
8a-
8b-
8cc
8dd
=88
8ee-
8dd
8dd-
8cc
8cc-
8g
8g-
8f
=89
4e-
4a-
2b-
=90
8r
8e-
8a-
[8b-
4.b-]
8a-
=91
4e-
8r
8f
8e-
8f
8g
8a-
=92
8b-
8a
8a-
8b-
8cc-
8cc
8dd-
8cc-
=93
qa
4b-
8d-
[8e-
4e-]
4r
=94
4r
8r
16f
16e
8e-
8b-
8dd
8cc
=95
8b-
8cc
8dd
8cc
4a-
8cc
8b-
=96
4g-
8b-
8a-
4e
4B-
=97
8b-
[8f
4f_
4f]
4r
=98
8r
8b-
8b-
8dd
4.dd
8b-
=99
8b-
8g
[4g
4g]
8r
8e-
=100
8d
8B-
[4c
4c]
4r
=101
8r
16B-
16c
16f
16e-
16f
16e
16e-
16f
16g
16a-
16b-
16cc
16dd
16ee-
=102
16ff
16ee
16ee-
16ff
8.dd
16cc
8.b-
16g
8f
8d
=103
4dd
8ff
8ee
8ee-
8b-
8g-
[8a-
=104
4.a-]
8f#
4a-
8a
8d
=105
8g
8f#
8g
8a
4.b-
8ee-
=106
4dd-
8cc
[8b-
4b-]
4r
=107
8.r
16d
16g
16f#
16g
16a
8b-
8a
8b-
8cc
=108
4dd-
8cc
[8b-
4b-]
8r
8a-
=109
8f
8e
8f
8g
8a-
8g
8a-
8b-
=110
4cc-
8b-
[8a-
4a-]
4r
=111
8r
8g
8b-
8g
8a-
8b-
8b
8dd-
=112
8b-
8a
8a-
8g
8g-
8dd-
8cc-
8a-
=113
4b-
8g
8f
8e-
8f
4g
=114
4b-
8r
8g
8d
8e-
8g
8b-
=115
4dd
[2.ff
=116
2ff_
8ff]
8ee-
8dd
8cc
=117
8ee-
16dd
16cc
8b-
8a-
4cc
4r
=118
8r
8ee-
8b
8cc
8b-
8a-
8g
8f
=119
8e-
8B-
8f
8d
8e-
8f
8g
8b-
=120
8a-
8e-
8a
[8b-
4b-]
8a-
16b-
16a-
=121
8g
8d
4r
2r
==
*-
!!!OCL: Hubert Leveille Gauvin
!!!ENC: Hubert Leveille Gauvin
!!!END: 2018-04-14